v/0.4.11/design-resources/icons/wf_doctype-icons/folder-open.svg

<?xml version="1.0" encoding="utf-8"?>
<!-- Generated by IcoMoon.io -->
<!DOCTYPE svg PUBLIC "-//W3C//DTD SVG 1.1//EN" "http://www.w3.org/Graphics/SVG/1.1/DTD/svg11.dtd">
<svg version="1.1" xmlns="http://www.w3.org/2000/svg" xmlns:xlink="http://www.w3.org/1999/xlink" width="512" height="512" viewBox="0 0 512 512">
<g>
</g>
	<path d="M480 192v-64h-256v-16c0-26.5-21.5-48-48-48h-111.3c-25 0-32.7 7.2-32.7 32v320h424l48-224h-24zM430.1 384h-366.1v-288h112c8.8 0 16 7.2 16 16v48h256v32h-322l-32 128h33l24-96h313.4l-34.3 160z" fill="#595959" />
</svg>

<svg xmlns="http://www.w3.org/2000/svg" width="512" height="512" viewBox="0 0 512 512"><path stroke="#449FDB" d="M0 0"/><path d="M480 192v-64H224v-16c0-26.5-21.5-48-48-48H64.7C39.7 64 32 71.2 32 96v320h424l48-224h-24zm-49.9 192H64V96h112c8.8 0 16 7.2 16 16v48h256v32H126L94 320h33l24-96h313.4l-34.3 160z" fill="#595959"/></svg>
